;FLAVOR:Marlin
;TIME:2033
;Filament used: 1.69392m
;Layer height: 0.15
;Generated with Cura_SteamEngine 3.5.1
M140 S60
M105
M190 S60
M104 S200
M105
M109 S200
M82 ;absolute extrusion mode
G28 ;Home
G1 Z15.0 F6000 ;Move the platform down 15mm
;Prime the extruder
G92 E0
G1 F200 E3
G92 E0
G92 E0
G1 F2400 E-5
;LAYER_COUNT:34
;LAYER:0
M107
M204 S5000
M205 X30 Y30
G0 F3600 X106.722 Y140.335 Z0.2
M204 S500
M205 X20 Y20
;TYPE:SKIRT
G1 F2400 E0
G1 F1800 X107.37 Y139.884 E0.02626
G1 X108.061 Y139.5 E0.05255
G1 X108.786 Y139.188 E0.0788
G1 X109.539 Y138.951 E0.10506
G1 X109.978 Y138.851 E0.12003
G1 X121.85 Y136.489 E0.52264
G1 X130.625 Y130.625 E0.87367
G1 X136.489 Y121.85 E1.22469
G1 X138.851 Y109.978 E1.6273
G1 X139.044 Y109.212 E1.65357
G1 X139.314 Y108.47 E1.67983
G1 X139.657 Y107.759 E1.70609
G1 X140.07 Y107.086 E1.73235
G1 X140.549 Y106.458 E1.75862
G1 X141.09 Y105.882 E1.7849
G1 X141.685 Y105.364 E1.81114
G1 X142.331 Y104.909 E1.83742
G1 X143.018 Y104.521 E1.86367
G1 X143.742 Y104.204 E1.88995
G1 X144.494 Y103.963 E1.91622
G1 X145.266 Y103.798 E1.94247
G1 X146.051 Y103.713 E1.96874
G1 X146.501 Y103.7 E1.98371
G1 X188.5 Y103.7 E3.3806
G1 X189.289 Y103.74 E3.40688
G1 X190.069 Y103.859 E3.43312
G1 X190.834 Y104.057 E3.4594
G1 X191.574 Y104.331 E3.48565
G1 X192.283 Y104.679 E3.51192
G1 X192.954 Y105.097 E3.53821
G1 X193.578 Y105.58 E3.56446
G1 X194.151 Y106.123 E3.59071
G1 X194.666 Y106.722 E3.61699
G1 X195.117 Y107.37 E3.64325
G1 X195.501 Y108.061 E3.66954
G1 X195.813 Y108.786 E3.69579
G1 X196.05 Y109.539 E3.72205
G1 X196.209 Y110.313 E3.74833
G1 X196.29 Y111.098 E3.77458
G1 X196.3 Y111.5 E3.78795
G1 X196.3 Y113.5 E3.85447
G1 X196.26 Y114.289 E3.88075
G1 X196.141 Y115.069 E3.90699
G1 X195.943 Y115.834 E3.93327
G1 X195.669 Y116.574 E3.95952
G1 X195.321 Y117.283 E3.98579
G1 X194.903 Y117.954 E4.01208
G1 X194.42 Y118.578 E4.03833
G1 X193.877 Y119.151 E4.06458
G1 X193.278 Y119.666 E4.09086
G1 X192.757 Y120.029 E4.11198
G1 X189.834 Y134.719 E4.61014
G1 X189.97 Y134.909 E4.61792
G1 X190.362 Y135.594 E4.64417
G1 X190.683 Y136.316 E4.67045
G1 X190.929 Y137.066 E4.6967
G1 X191.098 Y137.837 E4.72295
G1 X191.188 Y138.622 E4.74923
G1 X191.199 Y139.412 E4.77551
G1 X191.129 Y140.198 E4.80176
G1 X190.98 Y140.974 E4.82804
G1 X190.754 Y141.73 E4.85428
G1 X190.61 Y142.105 E4.86764
G1 X189.079 Y145.8 E5.00067
G1 X188.74 Y146.513 E5.02693
G1 X188.331 Y147.188 E5.05318
G1 X187.855 Y147.819 E5.07947
G1 X187.319 Y148.398 E5.10571
G1 X186.726 Y148.92 E5.13199
G1 X186.084 Y149.38 E5.15825
G1 X185.399 Y149.772 E5.1845
G1 X184.677 Y150.093 E5.21079
G1 X183.927 Y150.339 E5.23704
G1 X183.308 Y150.475 E5.25812
G1 X174.986 Y162.93 E5.75633
G1 X175.038 Y163.154 E5.76398
G1 X175.138 Y163.938 E5.79027
G1 X175.159 Y164.727 E5.81652
G1 X175.099 Y165.514 E5.84277
G1 X174.96 Y166.292 E5.86906
G1 X174.743 Y167.051 E5.89532
G1 X174.451 Y167.785 E5.92159
G1 X174.086 Y168.485 E5.94785
G1 X173.652 Y169.145 E5.97412
G1 X173.153 Y169.757 E6.00038
G1 X172.876 Y170.048 E6.01374
G1 X170.048 Y172.876 E6.14677
G1 X169.462 Y173.406 E6.17304
G1 X168.826 Y173.873 E6.19929
G1 X168.146 Y174.274 E6.22555
G1 X167.428 Y174.604 E6.25183
G1 X166.681 Y174.859 E6.27808
G1 X165.912 Y175.038 E6.30434
G1 X165.128 Y175.138 E6.33063
G1 X164.339 Y175.159 E6.35688
G1 X163.552 Y175.099 E6.38313
G1 X162.927 Y174.987 E6.40425
G1 X150.472 Y183.31 E6.90249
G1 X150.434 Y183.539 E6.91021
G1 X150.227 Y184.301 E6.93647
G1 X149.943 Y185.038 E6.96274
G1 X149.587 Y185.742 E6.98898
G1 X149.161 Y186.407 E7.01524
G1 X148.67 Y187.026 E7.04152
G1 X148.119 Y187.591 E7.06777
G1 X147.513 Y188.098 E7.09405
G1 X146.86 Y188.542 E7.12032
G1 X146.165 Y188.917 E7.14658
G1 X145.8 Y189.079 E7.15986
G1 X142.105 Y190.61 E7.29289
G1 X141.361 Y190.875 E7.31916
G1 X140.594 Y191.063 E7.34543
G1 X139.812 Y191.173 E7.37169
G1 X139.023 Y191.203 E7.39795
G1 X138.235 Y191.154 E7.42421
G1 X137.456 Y191.025 E7.45047
G1 X136.694 Y190.817 E7.47675
G1 X135.957 Y190.534 E7.503
G1 X135.252 Y190.178 E7.52927
G1 X134.717 Y189.835 E7.55041
G1 X120.025 Y192.758 E8.04864
G1 X119.903 Y192.954 E8.05632
G1 X119.42 Y193.578 E8.08257
G1 X118.877 Y194.151 E8.10882
G1 X118.278 Y194.666 E8.1351
G1 X117.63 Y195.117 E8.16136
G1 X116.939 Y195.501 E8.18765
G1 X116.214 Y195.813 E8.2139
G1 X115.461 Y196.05 E8.24016
G1 X114.687 Y196.209 E8.26644
G1 X113.902 Y196.29 E8.29269
G1 X113.5 Y196.3 E8.30606
G1 X111.5 Y196.3 E8.37258
G1 X110.711 Y196.26 E8.39886
G1 X109.931 Y196.141 E8.4251
G1 X109.166 Y195.943 E8.45138
G1 X108.426 Y195.669 E8.47763
G1 X107.717 Y195.321 E8.5039
G1 X107.046 Y194.903 E8.53019
G1 X106.422 Y194.42 E8.55644
G1 X105.849 Y193.877 E8.58269
G1 X105.334 Y193.278 E8.60897
G1 X104.883 Y192.63 E8.63523
G1 X104.499 Y191.939 E8.66152
G1 X104.187 Y191.214 E8.68777
G1 X103.95 Y190.461 E8.71403
G1 X103.791 Y189.687 E8.74031
G1 X103.71 Y188.902 E8.76655
G1 X103.7 Y188.5 E8.77993
G1 X103.7 Y146.501 E10.17682
G1 X103.74 Y145.712 E10.2031
G1 X103.859 Y144.932 E10.22934
G1 X104.057 Y144.167 E10.25562
G1 X104.331 Y143.427 E10.28187
G1 X104.679 Y142.718 E10.30814
G1 X105.097 Y142.047 E10.33443
G1 X105.58 Y141.423 E10.36068
G1 X106.123 Y140.85 E10.38693
G1 X106.722 Y140.335 E10.41321
M204 S5000
M205 X30 Y30
G0 F3600 X107.111 Y140.543
M204 S500
M205 X20 Y20
G1 F1800 X107.753 Y140.12 E10.43878
G1 X108.436 Y139.765 E10.46438
G1 X109.151 Y139.484 E10.48993
G1 X110.056 Y139.243 E10.52108
G1 X122.007 Y136.865 E10.92637
G1 X130.913 Y130.913 E11.28264
G1 X136.865 Y122.007 E11.63892
G1 X139.243 Y110.056 E12.0442
G1 X139.432 Y109.31 E12.0698
G1 X139.698 Y108.588 E12.09539
G1 X140.037 Y107.898 E12.12096
G1 X140.446 Y107.247 E12.14653
G1 X140.92 Y106.641 E12.17212
G1 X141.454 Y106.088 E12.19769
G1 X142.043 Y105.593 E12.22328
G1 X142.681 Y105.162 E12.24889
G1 X143.359 Y104.8 E12.27445
G1 X144.071 Y104.51 E12.30002
G1 X144.81 Y104.296 E12.32561
G1 X145.567 Y104.159 E12.3512
G1 X146.501 Y104.1 E12.38232
G1 X188.5 Y104.1 E13.77922
G1 X189.268 Y104.14 E13.80479
G1 X190.028 Y104.259 E13.83038
G1 X190.771 Y104.457 E13.85595
G1 X191.49 Y104.731 E13.88155
G1 X192.176 Y105.078 E13.90712
G1 X192.823 Y105.494 E13.9327
G1 X193.423 Y105.975 E13.95828
G1 X193.97 Y106.516 E13.98386
G1 X194.458 Y107.111 E14.00946
G1 X194.881 Y107.753 E14.03503
G1 X195.236 Y108.436 E14.06063
G1 X195.517 Y109.151 E14.08618
G1 X195.723 Y109.893 E14.1118
G1 X195.851 Y110.651 E14.13736
G1 X195.9 Y111.5 E14.16565
G1 X195.9 Y113.5 E14.23217
G1 X195.86 Y114.268 E14.25775
G1 X195.741 Y115.028 E14.28333
G1 X195.543 Y115.771 E14.30891
G1 X195.269 Y116.49 E14.3345
G1 X194.922 Y117.176 E14.36007
G1 X194.506 Y117.823 E14.38565
G1 X194.025 Y118.423 E14.41123
G1 X193.484 Y118.97 E14.43682
G1 X192.889 Y119.458 E14.46241
G1 X192.399 Y119.781 E14.48193
G1 X189.409 Y134.81 E14.9916
G1 X189.697 Y135.226 E15.00842
G1 X190.067 Y135.9 E15.034
G1 X190.365 Y136.609 E15.05958
G1 X190.588 Y137.346 E15.08519
G1 X190.734 Y138.101 E15.11076
G1 X190.8 Y138.867 E15.13634
G1 X190.786 Y139.636 E15.16192
G1 X190.692 Y140.4 E15.18752
G1 X190.52 Y141.149 E15.21308
G1 X190.24 Y141.952 E15.24136
G1 X188.709 Y145.647 E15.37439
G1 X188.378 Y146.341 E15.39997
G1 X187.977 Y146.997 E15.42554
G1 X187.51 Y147.608 E15.45112
G1 X186.982 Y148.167 E15.47669
G1 X186.399 Y148.669 E15.50228
G1 X185.767 Y149.107 E15.52785
G1 X185.092 Y149.477 E15.55346
G1 X184.383 Y149.775 E15.57904
G1 X183.647 Y149.998 E15.60462
G1 X183.071 Y150.109 E15.62413
G1 X174.558 Y162.85 E16.13378
G1 X174.665 Y163.343 E16.15056
G1 X174.749 Y164.108 E16.17616
G1 X174.753 Y164.877 E16.20173
G1 X174.677 Y165.642 E16.2273
G1 X174.523 Y166.396 E16.2529
G1 X174.291 Y167.129 E16.27847
G1 X173.984 Y167.834 E16.30405
G1 X173.605 Y168.504 E16.32965
G1 X173.159 Y169.131 E16.35524
G1 X172.594 Y169.766 E16.38351
G1 X169.766 Y172.594 E16.51653
G1 X169.194 Y173.108 E16.54211
G1 X168.572 Y173.561 E16.5677
G1 X167.907 Y173.947 E16.59328
G1 X167.205 Y174.262 E16.61887
G1 X166.474 Y174.502 E16.64446
G1 X165.723 Y174.665 E16.67002
G1 X164.958 Y174.749 E16.69561
G1 X164.189 Y174.753 E16.72119
G1 X163.424 Y174.677 E16.74676
G1 X162.848 Y174.559 E16.76632
G1 X150.107 Y183.072 E17.27597
G1 X150.017 Y183.57 E17.2928
G1 X149.802 Y184.309 E17.3184
G1 X149.511 Y185.021 E17.34399
G1 X149.148 Y185.699 E17.36956
G1 X148.717 Y186.336 E17.39515
G1 X148.222 Y186.924 E17.42071
G1 X147.668 Y187.458 E17.4463
G1 X147.062 Y187.932 E17.47189
G1 X146.41 Y188.34 E17.49747
G1 X145.647 Y188.709 E17.52566
G1 X141.952 Y190.24 E17.65869
G1 X141.227 Y190.497 E17.68427
G1 X140.479 Y190.678 E17.70987
G1 X139.717 Y190.78 E17.73544
G1 X138.948 Y190.802 E17.76103
G1 X138.181 Y190.744 E17.78661
G1 X137.424 Y190.607 E17.8122
G1 X136.685 Y190.392 E17.8378
G1 X135.973 Y190.102 E17.86337
G1 X135.295 Y189.739 E17.88895
G1 X134.808 Y189.409 E17.90851
G1 X119.778 Y192.399 E18.41821
G1 X119.506 Y192.823 E18.43496
G1 X119.025 Y193.423 E18.46054
G1 X118.484 Y193.97 E18.48613
G1 X117.889 Y194.458 E18.51172
G1 X117.247 Y194.881 E18.53729
G1 X116.564 Y195.236 E18.5629
G1 X115.849 Y195.517 E18.58845
G1 X115.107 Y195.723 E18.61406
G1 X114.349 Y195.851 E18.63963
G1 X113.5 Y195.9 E18.66791
G1 X111.5 Y195.9 E18.73443
G1 X110.732 Y195.86 E18.76001
G1 X109.972 Y195.741 E18.7856
G1 X109.229 Y195.543 E18.81117
G1 X108.51 Y195.269 E18.83676
G1 X107.824 Y194.922 E18.86233
G1 X107.177 Y194.506 E18.88792
G1 X106.577 Y194.025 E18.91349
G1 X106.03 Y193.484 E18.93908
G1 X105.542 Y192.889 E18.96468
G1 X105.119 Y192.247 E18.99025
G1 X104.764 Y191.564 E19.01585
G1 X104.483 Y190.849 E19.0414
G1 X104.277 Y190.107 E19.06701
G1 X104.149 Y189.349 E19.09258
G1 X104.1 Y188.5 E19.12087
G1 X104.1 Y146.501 E20.51776
G1 X104.14 Y145.733 E20.54334
G1 X104.259 Y144.973 E20.56892
G1 X104.457 Y144.23 E20.5945
G1 X104.731 Y143.511 E20.62009
G1 X105.078 Y142.825 E20.64566
G1 X105.494 Y142.178 E20.67124
G1 X105.975 Y141.578 E20.69682
G1 X106.516 Y141.031 E20.72241
G1 X107.111 Y140.543 E20.748
M204 S5000
M205 X30 Y30
G0 F3600 X107.498 Y140.758
M204 S500
M205 X20 Y20
G1 F1800 X108.134 Y140.363 E20.7729
G1 X108.808 Y140.039 E20.79778
G1 X109.513 Y139.789 E20.82266
G1 X110.134 Y139.636 E20.84393
G1 X122.161 Y137.243 E21.25179
G1 X131.201 Y131.201 E21.61343
G1 X137.243 Y122.161 E21.97508
G1 X139.636 Y110.134 E22.38294
G1 X139.821 Y109.409 E22.40783
G1 X140.082 Y108.708 E22.43271
G1 X140.416 Y108.039 E22.45758
G1 X140.82 Y107.41 E22.48244
G1 X141.289 Y106.827 E22.50733
G1 X141.818 Y106.297 E22.53223
G1 X142.4 Y105.827 E22.55711
G1 X143.029 Y105.422 E22.582
G1 X143.697 Y105.086 E22.60687
G1 X144.397 Y104.824 E22.63173
G1 X145.122 Y104.637 E22.65663
G1 X145.862 Y104.529 E22.6815
G1 X146.501 Y104.5 E22.70278
G1 X188.5 Y104.5 E24.09967
G1 X189.247 Y104.54 E24.12455
G1 X189.985 Y104.659 E24.14941
G1 X190.707 Y104.857 E24.17431
G1 X191.403 Y105.13 E24.19918
G1 X192.066 Y105.477 E24.22407
G1 X192.689 Y105.892 E24.24897
G1 X193.263 Y106.371 E24.27383
G1 X193.784 Y106.908 E24.29872
G1 X194.243 Y107.498 E24.32358
G1 X194.638 Y108.134 E24.34848
G1 X194.962 Y108.808 E24.37335
G1 X195.212 Y109.513 E24.39823
G1 X195.386 Y110.241 E24.42313
G1 X195.481 Y110.983 E24.44801
G1 X195.5 Y111.5 E24.46522
G1 X195.5 Y113.5 E24.53174
G1 X195.46 Y114.247 E24.55662
G1 X195.341 Y114.985 E24.58148
G1 X195.143 Y115.707 E24.60638
G1 X194.87 Y116.403 E24.63125
G1 X194.523 Y117.066 E24.65614
G1 X194.108 Y117.689 E24.68103
G1 X193.629 Y118.263 E24.7059
G1 X193.092 Y118.784 E24.73078
G1 X192.502 Y119.243 E24.75565
G1 X192.04 Y119.53 E24.77374
G1 X188.984 Y134.894 E25.29476
G1 X189.005 Y134.92 E25.29587
G1 X189.421 Y135.542 E25.32076
G1 X189.768 Y136.204 E25.34562
G1 X190.043 Y136.9 E25.37051
G1 X190.242 Y137.621 E25.39538
G1 X190.363 Y138.359 E25.42026
G1 X190.404 Y139.106 E25.44514
G1 X190.365 Y139.853 E25.47002
G1 X190.247 Y140.592 E25.49491
G1 X190.051 Y141.314 E25.51979
G1 X189.871 Y141.799 E25.537
G1 X188.34 Y145.494 E25.67003
G1 X188.017 Y146.168 E25.69488
G1 X187.624 Y146.805 E25.71978
G1 X187.165 Y147.396 E25.74467
G1 X186.646 Y147.934 E25.76953
G1 X186.072 Y148.414 E25.79442
G1 X185.451 Y148.831 E25.8193
G1 X184.788 Y149.178 E25.84419
G1 X184.093 Y149.453 E25.86905
G1 X183.371 Y149.652 E25.89396
G1 X182.836 Y149.74 E25.91199
G1 X174.133 Y162.766 E26.43304
G1 X174.142 Y162.796 E26.43408
G1 X174.289 Y163.529 E26.45894
G1 X174.356 Y164.274 E26.48382
G1 X174.344 Y165.022 E26.5087
G1 X174.252 Y165.765 E26.53361
G1 X174.081 Y166.493 E26.55848
G1 X173.834 Y167.199 E26.58335
G1 X173.512 Y167.874 E26.60823
G1 X173.12 Y168.512 E26.63313
G1 X172.663 Y169.103 E26.65798
G1 X172.311 Y169.483 E26.67521
G1 X169.483 Y172.311 E26.80823
G1 X168.926 Y172.811 E26.83313
G1 X168.32 Y173.248 E26.85798
G1 X167.67 Y173.619 E26.88287
G1 X166.984 Y173.918 E26.90776
G1 X166.27 Y174.142 E26.93265
G1 X165.537 Y174.289 E26.95751
G1 X164.792 Y174.356 E26.98239
G1 X164.044 Y174.344 E27.00727
G1 X163.301 Y174.252 E27.03217
G1 X162.773 Y174.128 E27.05021
G1 X149.746 Y182.832 E27.57131
G1 X149.743 Y182.864 E27.57238
G1 X149.598 Y183.598 E27.59726
G1 X149.375 Y184.312 E27.62214
G1 X149.078 Y184.998 E27.647
G1 X148.708 Y185.649 E27.67191
G1 X148.272 Y186.256 E27.69677
G1 X147.773 Y186.814 E27.72166
G1 X147.217 Y187.315 E27.74656
G1 X146.611 Y187.753 E27.77143
G1 X145.962 Y188.125 E27.79631
G1 X145.494 Y188.34 E27.81344
G1 X141.799 Y189.871 E27.94646
G1 X141.093 Y190.12 E27.97136
G1 X140.365 Y190.292 E27.99624
G1 X139.623 Y190.386 E28.02112
G1 X138.875 Y190.4 E28.046
G1 X138.13 Y190.334 E28.07088
G1 X137.396 Y190.189 E28.09576
G1 X136.682 Y189.966 E28.12064
G1 X135.996 Y189.668 E28.14552
G1 X135.345 Y189.299 E28.17041
G1 X134.903 Y188.982 E28.1885
G1 X119.537 Y192.039 E28.70959
G1 X119.523 Y192.066 E28.7106
G1 X119.108 Y192.689 E28.7355
G1 X118.629 Y193.263 E28.76036
G1 X118.092 Y193.784 E28.78525
G1 X117.502 Y194.243 E28.81011
G1 X116.866 Y194.638 E28.83501
G1 X116.192 Y194.962 E28.85989
G1 X115.487 Y195.212 E28.88476
G1 X114.759 Y195.386 E28.90966
G1 X114.017 Y195.481 E28.93454
G1 X113.5 Y195.5 E28.95175
G1 X111.5 Y195.5 E29.01827
G1 X110.753 Y195.46 E29.04315
G1 X110.015 Y195.341 E29.06801
G1 X109.293 Y195.143 E29.09291
G1 X108.597 Y194.87 E29.11778
G1 X107.934 Y194.523 E29.14267
G1 X107.311 Y194.108 E29.16756
G1 X106.737 Y193.629 E29.19243
G1 X106.216 Y193.092 E29.21732
G1 X105.757 Y192.502 E29.24218
G1 X105.362 Y191.866 E29.26708
G1 X105.038 Y191.192 E29.29195
G1 X104.788 Y190.487 E29.31683
G1 X104.614 Y189.759 E29.34173
G1 X104.519 Y189.017 E29.36661
G1 X104.5 Y188.5 E29.38381
G1 X104.5 Y146.501 E30.78071
G1 X104.54 Y145.754 E30.80559
G1 X104.659 Y145.016 E30.83045
G1 X104.857 Y144.294 E30.85535
G1 X105.13 Y143.598 E30.88022
G1 X105.477 Y142.935 E30.90511
G1 X105.892 Y142.312 E30.93
G1 X106.371 Y141.738 E30.95487
G1 X106.908 Y141.217 E30.97975
G1 X107.498 Y140.758 E31.00462
M204 S5000
M205 X30 Y30
G0 F3600 X107.299 Y141.41
M204 S500
M205 X20 Y20
G1 F1800 X107.884 Y140.98 E31.02876
G1 X108.513 Y140.616 E31.05294
G1 X109.178 Y140.323 E31.07711
G1 X110.212 Y140.028 E31.11287
G1 X122.319 Y137.619 E31.52344
G1 X131.49 Y131.49 E31.89032
G1 X137.619 Y122.319 E32.2572
G1 X140.028 Y110.212 E32.66777
G1 X140.209 Y109.509 E32.69191
G1 X140.466 Y108.829 E32.71609
G1 X140.796 Y108.182 E32.74025
G1 X141.195 Y107.575 E32.76441
G1 X141.658 Y107.016 E32.78855
G1 X142.18 Y106.511 E32.81271
G1 X142.755 Y106.066 E32.83689
G1 X143.374 Y105.688 E32.86101
G1 X144.032 Y105.379 E32.88519
G1 X144.72 Y105.145 E32.90936
G1 X145.429 Y104.988 E32.93351
G1 X146.501 Y104.9 E32.96929
G1 X188.5 Y104.9 E34.36618
G1 X189.225 Y104.94 E34.39033
G1 X189.942 Y105.059 E34.41451
G1 X190.641 Y105.257 E34.43867
G1 X191.314 Y105.53 E34.46283
G1 X191.953 Y105.875 E34.48698
G1 X192.55 Y106.289 E34.51114
G1 X193.098 Y106.765 E34.53528
G1 X193.591 Y107.299 E34.55946
G1 X194.021 Y107.884 E34.5836
G1 X194.385 Y108.513 E34.60778
G1 X194.678 Y109.178 E34.63195
G1 X194.896 Y109.871 E34.65611
G1 X195.036 Y110.583 E34.68024
G1 X195.1 Y111.5 E34.71082
G1 X195.1 Y113.5 E34.77734
G1 X195.06 Y114.225 E34.80149
G1 X194.941 Y114.942 E34.82566
G1 X194.743 Y115.641 E34.84982
G1 X194.47 Y116.314 E34.87398
G1 X194.125 Y116.953 E34.89813
G1 X193.711 Y117.55 E34.9223
