;FLAVOR:Marlin
;TIME:4011
;Filament used: 2.05884m
;Layer height: 0.1
;Generated with Cura_SteamEngine 3.5.1
M140 S60
M105
M190 S60
M104 S200
M105
M109 S200
M82 ;absolute extrusion mode
G28 ;Home
G1 Z15.0 F6000 ;Move the platform down 15mm
;Prime the extruder
G92 E0
G1 F200 E3
G92 E0
G92 E0
G1 F2400 E-5
;LAYER_COUNT:75
;LAYER:0
M107
M204 S5000
M205 X30 Y30
G0 F3600 X107.623 Y124.349 Z0.2
M204 S500
M205 X20 Y20
;TYPE:SKIRT
G1 F2400 E0
G1 F1800 X108.222 Y123.834 E0.02627
G1 X108.87 Y123.383 E0.05253
G1 X109.561 Y122.999 E0.07883
G1 X110.286 Y122.687 E0.10508
G1 X111.039 Y122.45 E0.13133
G1 X111.813 Y122.291 E0.15761
G1 X112.598 Y122.21 E0.18386
G1 X113 Y122.2 E0.19724
G1 X187 Y122.2 E2.65849
G1 X187.789 Y122.24 E2.68476
G1 X188.569 Y122.359 E2.71101
G1 X189.334 Y122.557 E2.73729
G1 X190.074 Y122.831 E2.76353
G1 X190.783 Y123.179 E2.7898
G1 X191.454 Y123.597 E2.8161
G1 X192.078 Y124.08 E2.84234
G1 X192.651 Y124.623 E2.8686
G1 X193.166 Y125.222 E2.89487
G1 X193.617 Y125.87 E2.92113
G1 X194.001 Y126.561 E2.94742
G1 X194.313 Y127.286 E2.97368
G1 X194.55 Y128.039 E2.99993
G1 X194.709 Y128.813 E3.02621
G1 X194.79 Y129.598 E3.05246
G1 X194.8 Y130 E3.06584
G1 X194.8 Y170 E4.39624
G1 X194.76 Y170.789 E4.42252
G1 X194.641 Y171.569 E4.44876
G1 X194.443 Y172.334 E4.47504
G1 X194.169 Y173.074 E4.50129
G1 X193.821 Y173.783 E4.52756
G1 X193.403 Y174.454 E4.55385
G1 X192.92 Y175.078 E4.5801
G1 X192.377 Y175.651 E4.60635
G1 X191.778 Y176.166 E4.63263
G1 X191.13 Y176.617 E4.65888
G1 X190.439 Y177.001 E4.68518
G1 X189.714 Y177.313 E4.71143
G1 X188.961 Y177.55 E4.73769
G1 X188.187 Y177.709 E4.76397
G1 X187.402 Y177.79 E4.79021
G1 X187 Y177.8 E4.80359
G1 X113 Y177.8 E7.26484
G1 X112.211 Y177.76 E7.29111
G1 X111.431 Y177.641 E7.31736
G1 X110.666 Y177.443 E7.34364
G1 X109.926 Y177.169 E7.36989
G1 X109.217 Y176.821 E7.39615
G1 X108.546 Y176.403 E7.42245
G1 X107.922 Y175.92 E7.44869
G1 X107.349 Y175.377 E7.47495
G1 X106.834 Y174.778 E7.50122
G1 X106.383 Y174.13 E7.52748
G1 X105.999 Y173.439 E7.55378
G1 X105.687 Y172.714 E7.58003
G1 X105.45 Y171.961 E7.60628
G1 X105.291 Y171.187 E7.63256
G1 X105.21 Y170.402 E7.65881
G1 X105.2 Y170 E7.67219
G1 X105.2 Y130 E9.00259
G1 X105.24 Y129.211 E9.02887
G1 X105.359 Y128.431 E9.05511
G1 X105.557 Y127.666 E9.08139
G1 X105.831 Y126.926 E9.10764
G1 X106.179 Y126.217 E9.13391
G1 X106.597 Y125.546 E9.1602
G1 X107.08 Y124.922 E9.18645
G1 X107.623 Y124.349 E9.2127
M204 S5000
M205 X30 Y30
G0 F3600 X108.016 Y124.53
M204 S500
M205 X20 Y20
G1 F1800 X108.611 Y124.042 E9.2383
G1 X109.253 Y123.619 E9.26387
G1 X109.936 Y123.264 E9.28947
G1 X110.651 Y122.983 E9.31502
G1 X111.393 Y122.777 E9.34063
G1 X112.151 Y122.649 E9.3662
G1 X113 Y122.6 E9.39449
G1 X187 Y122.6 E11.85574
G1 X187.768 Y122.64 E11.88132
G1 X188.528 Y122.759 E11.9069
G1 X189.271 Y122.957 E11.93248
G1 X189.99 Y123.231 E11.95807
G1 X190.676 Y123.578 E11.98364
G1 X191.323 Y123.994 E12.00922
G1 X191.923 Y124.475 E12.0348
G1 X192.47 Y125.016 E12.06039
G1 X192.958 Y125.611 E12.08598
G1 X193.381 Y126.253 E12.11155
G1 X193.736 Y126.936 E12.13715
G1 X194.017 Y127.651 E12.16271
G1 X194.223 Y128.393 E12.18832
G1 X194.351 Y129.151 E12.21389
G1 X194.4 Y130 E12.24217
G1 X194.4 Y170 E13.57258
G1 X194.36 Y170.768 E13.59816
G1 X194.241 Y171.528 E13.62374
G1 X194.043 Y172.271 E13.64932
G1 X193.769 Y172.99 E13.67491
G1 X193.422 Y173.676 E13.70048
G1 X193.006 Y174.323 E13.72606
G1 X192.525 Y174.923 E13.75164
G1 X191.984 Y175.47 E13.77723
G1 X191.389 Y175.958 E13.80282
G1 X190.747 Y176.381 E13.82839
G1 X190.064 Y176.736 E13.85399
G1 X189.349 Y177.017 E13.87955
G1 X188.607 Y177.223 E13.90516
G1 X187.849 Y177.351 E13.93073
G1 X187 Y177.4 E13.95901
G1 X113 Y177.4 E16.42026
G1 X112.232 Y177.36 E16.44584
G1 X111.472 Y177.241 E16.47142
G1 X110.729 Y177.043 E16.497
G1 X110.01 Y176.769 E16.52259
G1 X109.324 Y176.422 E16.54816
G1 X108.677 Y176.006 E16.57374
G1 X108.077 Y175.525 E16.59932
G1 X107.53 Y174.984 E16.62491
G1 X107.042 Y174.389 E16.6505
G1 X106.619 Y173.747 E16.67608
G1 X106.264 Y173.064 E16.70168
G1 X105.983 Y172.349 E16.72723
G1 X105.777 Y171.607 E16.75284
G1 X105.649 Y170.849 E16.77841
G1 X105.6 Y170 E16.80669
G1 X105.6 Y130 E18.1371
G1 X105.64 Y129.232 E18.16268
G1 X105.759 Y128.472 E18.18826
G1 X105.957 Y127.729 E18.21384
G1 X106.231 Y127.01 E18.23943
G1 X106.578 Y126.324 E18.265
G1 X106.994 Y125.677 E18.29058
G1 X107.475 Y125.077 E18.31616
G1 X108.016 Y124.53 E18.34175
M204 S5000
M205 X30 Y30
G0 F3600 X108.408 Y124.716
M204 S500
M205 X20 Y20
G1 F1800 X108.998 Y124.257 E18.36661
G1 X109.634 Y123.862 E18.39151
G1 X110.308 Y123.538 E18.41639
G1 X111.013 Y123.288 E18.44126
G1 X111.741 Y123.114 E18.46616
G1 X112.483 Y123.019 E18.49104
G1 X113 Y123 E18.50825
G1 X187 Y123 E20.9695
G1 X187.747 Y123.04 E20.99438
G1 X188.485 Y123.159 E21.01924
G1 X189.207 Y123.357 E21.04414
G1 X189.903 Y123.63 E21.06901
G1 X190.566 Y123.977 E21.0939
G1 X191.189 Y124.392 E21.11879
G1 X191.763 Y124.871 E21.14366
G1 X192.284 Y125.408 E21.16855
G1 X192.743 Y125.998 E21.19341
G1 X193.138 Y126.634 E21.21831
G1 X193.462 Y127.308 E21.24318
G1 X193.712 Y128.013 E21.26806
G1 X193.886 Y128.741 E21.29296
G1 X193.981 Y129.483 E21.31784
G1 X194 Y130 E21.33504
G1 X194 Y170 E22.66545
G1 X193.96 Y170.747 E22.69033
G1 X193.841 Y171.485 E22.71519
G1 X193.643 Y172.207 E22.74009
G1 X193.37 Y172.903 E22.76496
G1 X193.023 Y173.566 E22.78985
G1 X192.608 Y174.189 E22.81475
G1 X192.129 Y174.763 E22.83961
G1 X191.592 Y175.284 E22.8645
G1 X191.002 Y175.743 E22.88936
G1 X190.366 Y176.138 E22.91426
G1 X189.692 Y176.462 E22.93913
G1 X188.987 Y176.712 E22.96401
G1 X188.259 Y176.886 E22.98891
G1 X187.517 Y176.981 E23.01379
G1 X187 Y177 E23.031
G1 X113 Y177 E25.49225
G1 X112.253 Y176.96 E25.51713
G1 X111.515 Y176.841 E25.54199
G1 X110.793 Y176.643 E25.56689
G1 X110.097 Y176.37 E25.59176
G1 X109.434 Y176.023 E25.61665
G1 X108.811 Y175.608 E25.64154
G1 X108.237 Y175.129 E25.66641
G1 X107.716 Y174.592 E25.69129
G1 X107.257 Y174.002 E25.71616
G1 X106.862 Y173.366 E25.74106
G1 X106.538 Y172.692 E25.76593
G1 X106.288 Y171.987 E25.79081
G1 X106.114 Y171.259 E25.81571
G1 X106.019 Y170.517 E25.84059
G1 X106 Y170 E25.85779
G1 X106 Y130 E27.1882
G1 X106.04 Y129.253 E27.21308
G1 X106.159 Y128.515 E27.23794
G1 X106.357 Y127.793 E27.26284
G1 X106.63 Y127.097 E27.28771
G1 X106.977 Y126.434 E27.3126
G1 X107.392 Y125.811 E27.3375
G1 X107.871 Y125.237 E27.36236
G1 X108.408 Y124.716 E27.38725
M204 S5000
M205 X30 Y30
G0 F3600 X108.265 Y125.402
M204 S500
M205 X20 Y20
G1 F1800 X108.799 Y124.909 E27.41142
G1 X109.384 Y124.479 E27.43557
G1 X110.013 Y124.115 E27.45974
G1 X110.678 Y123.822 E27.48391
G1 X111.371 Y123.604 E27.50807
G1 X112.083 Y123.464 E27.53221
G1 X113 Y123.4 E27.56278
G1 X187 Y123.4 E30.02403
G1 X187.725 Y123.44 E30.04818
G1 X188.442 Y123.559 E30.07235
G1 X189.141 Y123.757 E30.09652
G1 X189.814 Y124.03 E30.12067
G1 X190.453 Y124.375 E30.14483
G1 X191.05 Y124.789 E30.16899
G1 X191.598 Y125.265 E30.19313
G1 X192.091 Y125.799 E30.2173
G1 X192.521 Y126.384 E30.24145
G1 X192.885 Y127.013 E30.26562
G1 X193.178 Y127.678 E30.28979
G1 X193.396 Y128.371 E30.31396
G1 X193.536 Y129.083 E30.33809
G1 X193.6 Y130 E30.36866
G1 X193.6 Y170 E31.69907
G1 X193.56 Y170.725 E31.72322
G1 X193.441 Y171.442 E31.74739
G1 X193.243 Y172.141 E31.77156
G1 X192.97 Y172.814 E31.79571
G1 X192.625 Y173.453 E31.81987
G1 X192.211 Y174.05 E31.84403
G1 X191.735 Y174.598 E31.86817
G1 X191.201 Y175.091 E31.89234
G1 X190.616 Y175.521 E31.91649
G1 X189.987 Y175.885 E31.94066
G1 X189.322 Y176.178 E31.96483
G1 X188.629 Y176.396 E31.989
G1 X187.917 Y176.536 E32.01313
G1 X187 Y176.6 E32.0437
G1 X113 Y176.6 E34.50495
G1 X112.275 Y176.56 E34.5291
G1 X111.558 Y176.441 E34.55328
G1 X110.859 Y176.243 E34.57744
G1 X110.186 Y175.97 E34.6016
G1 X109.547 Y175.625 E34.62575
G1 X108.95 Y175.211 E34.64991
G1 X108.402 Y174.735 E34.67406
G1 X107.909 Y174.201 E34.69823
G1 X107.479 Y173.616 E34.72238
G1 X107.115 Y172.987 E34.74655
G1 X106.822 Y172.322 E34.77072
G1 X106.604 Y171.629 E34.79488
G1 X106.464 Y170.917 E34.81902
G1 X106.4 Y170 E34.84959
G1 X106.4 Y130 E36.17999
G1 X106.44 Y129.275 E36.20414
G1 X106.559 Y128.558 E36.22832
G1 X106.757 Y127.859 E36.25248
G1 X107.03 Y127.186 E36.27664
G1 X107.375 Y126.547 E36.30079
G1 X107.789 Y125.95 E36.32495
G1 X108.265 Y125.402 E36.3491
M204 S5000
M205 X30 Y30
G0 F3600 X108.659 Y125.573
M204 S500
M205 X20 Y20
G1 F1800 X109.189 Y125.109 E36.37253
G1 X109.768 Y124.709 E36.39593
G1 X110.389 Y124.377 E36.41935
G1 X111.043 Y124.117 E36.44276
G1 X111.723 Y123.933 E36.46619
G1 X112.419 Y123.827 E36.48961
G1 X113 Y123.8 E36.50895
G1 X187 Y123.8 E38.9702
G1 X187.703 Y123.84 E38.99362
G1 X188.397 Y123.959 E39.01704
G1 X189.072 Y124.157 E39.04044
G1 X189.721 Y124.429 E39.06384
G1 X190.335 Y124.774 E39.08727
G1 X190.906 Y125.185 E39.11067
G1 X191.427 Y125.659 E39.13409
G1 X191.891 Y126.189 E39.15752
G1 X192.291 Y126.768 E39.18093
G1 X192.623 Y127.389 E39.20435
G1 X192.883 Y128.043 E39.22776
G1 X193.067 Y128.723 E39.25119
G1 X193.173 Y129.419 E39.2746
G1 X193.2 Y130 E39.29395
G1 X193.2 Y170 E40.62435
G1 X193.16 Y170.703 E40.64777
G1 X193.041 Y171.397 E40.67119
G1 X192.843 Y172.072 E40.69459
G1 X192.571 Y172.721 E40.718
G1 X192.226 Y173.335 E40.74142
G1 X191.815 Y173.906 E40.76482
G1 X191.341 Y174.427 E40.78825
G1 X190.811 Y174.891 E40.81168
G1 X190.232 Y175.291 E40.83508
G1 X189.611 Y175.623 E40.8585
G1 X188.957 Y175.883 E40.88191
G1 X188.277 Y176.067 E40.90534
G1 X187.581 Y176.173 E40.92876
G1 X187 Y176.2 E40.9481
G1 X113 Y176.2 E43.40935
G1 X112.297 Y176.16 E43.43277
G1 X111.603 Y176.041 E43.45619
G1 X110.928 Y175.843 E43.47959
G1 X110.279 Y175.571 E43.50299
G1 X109.665 Y175.226 E43.52642
G1 X109.094 Y174.815 E43.54982
G1 X108.573 Y174.341 E43.57324
G1 X108.109 Y173.811 E43.59667
G1 X107.709 Y173.232 E43.62008
G1 X107.377 Y172.611 E43.6435
G1 X107.117 Y171.957 E43.66691
G1 X106.933 Y171.277 E43.69034
G1 X106.827 Y170.581 E43.71375
G1 X106.8 Y170 E43.7331
G1 X106.8 Y130 E45.0635
G1 X106.84 Y129.297 E45.08692
G1 X106.959 Y128.603 E45.11034
G1 X107.157 Y127.928 E45.13374
G1 X107.429 Y127.279 E45.15715
G1 X107.774 Y126.665 E45.18057
G1 X108.185 Y126.094 E45.20397
G1 X108.659 Y125.573 E45.2274
M204 S5000
M205 X30 Y30
G0 F3600 X109.053 Y125.751
M204 S500
M205 X20 Y20
G1 F1800 X109.578 Y125.317 E45.25005
G1 X110.15 Y124.948 E45.27269
G1 X110.762 Y124.649 E45.29535
G1 X111.404 Y124.424 E45.31797
G1 X112.069 Y124.275 E45.34064
G1 X113 Y124.2 E45.37171
G1 X187 Y124.2 E47.83296
G1 X187.68 Y124.24 E47.85561
G1 X188.35 Y124.359 E47.87824
G1 X189.002 Y124.556 E47.9009
G1 X189.626 Y124.828 E47.92354
G1 X190.214 Y125.172 E47.9462
G1 X190.758 Y125.582 E47.96885
G1 X191.249 Y126.053 E47.99148
G1 X191.683 Y126.578 E48.01414
G1 X192.052 Y127.15 E48.03678
G1 X192.351 Y127.762 E48.05943
G1 X192.576 Y128.404 E48.08206
G1 X192.725 Y129.069 E48.10473
G1 X192.8 Y130 E48.13579
G1 X192.8 Y170 E49.4662
G1 X192.76 Y170.68 E49.48885
G1 X192.641 Y171.35 E49.51149
G1 X192.444 Y172.002 E49.53414
G1 X192.172 Y172.626 E49.55678
G1 X191.828 Y173.214 E49.57944
G1 X191.418 Y173.758 E49.60209
G1 X190.947 Y174.249 E49.62472
G1 X190.422 Y174.683 E49.64738
G1 X189.85 Y175.052 E49.67002
G1 X189.238 Y175.351 E49.69267
G1 X188.596 Y175.576 E49.7153
G1 X187.931 Y175.725 E49.73797
G1 X187 Y175.8 E49.76903
G1 X113 Y175.8 E52.23028
G1 X112.32 Y175.76 E52.25294
G1 X111.65 Y175.641 E52.27557
G1 X110.998 Y175.444 E52.29823
G1 X110.374 Y175.172 E52.32087
G1 X109.786 Y174.828 E52.34352
G1 X109.242 Y174.418 E52.36618
G1 X108.751 Y173.947 E52.38881
G1 X108.317 Y173.422 E52.41147
G1 X107.948 Y172.85 E52.43411
G1 X107.649 Y172.238 E52.45676
G1 X107.424 Y171.596 E52.47939
G1 X107.275 Y170.931 E52.50205
G1 X107.2 Y170 E52.53312
G1 X107.2 Y130 E53.86352
G1 X107.24 Y129.32 E53.88618
G1 X107.359 Y128.65 E53.90881
G1 X107.556 Y127.998 E53.93147
G1 X107.828 Y127.374 E53.95411
G1 X108.172 Y126.786 E53.97677
G1 X108.582 Y126.242 E53.99942
G1 X109.053 Y125.751 E54.02205
M204 S5000
M205 X30 Y30
G0 F3600 X109.445 Y125.935
M204 S500
M205 X20 Y20
G1 F1800 X109.965 Y125.534 E54.04389
G1 X110.529 Y125.198 E54.06573
G1 X111.131 Y124.934 E54.08759
G1 X111.76 Y124.744 E54.10945
G1 X112.407 Y124.633 E54.13128
G1 X113 Y124.6 E54.15103
G1 X187 Y124.6 E56.61228
G1 X187.656 Y124.64 E56.63414
G1 X188.302 Y124.759 E56.65599
G1 X188.929 Y124.956 E56.67785
G1 X189.527 Y125.228 E56.6997
G1 X190.088 Y125.57 E56.72155
G1 X190.603 Y125.978 E56.74341
G1 X191.065 Y126.445 E56.76525
G1 X191.466 Y126.965 E56.78709
G1 X191.802 Y127.529 E56.80893
G1 X192.066 Y128.131 E56.83079
G1 X192.256 Y128.76 E56.85265
G1 X192.367 Y129.407 E56.87448
G1 X192.4 Y130 E56.89423
G1 X192.4 Y170 E58.22464
G1 X192.36 Y170.656 E58.2465
G1 X192.241 Y171.302 E58.26835
G1 X192.044 Y171.929 E58.29021
G1 X191.772 Y172.527 E58.31206
G1 X191.43 Y173.088 E58.33391
G1 X191.022 Y173.603 E58.35576
G1 X190.555 Y174.065 E58.37761
G1 X190.035 Y174.466 E58.39945
G1 X189.471 Y174.802 E58.42129
G1 X188.869 Y175.066 E58.44315
G1 X188.24 Y175.256 E58.465
G1 X187.593 Y175.367 E58.48684
G1 X187 Y175.4 E58.50659
G1 X113 Y175.4 E60.96784
G1 X112.344 Y175.36 E60.9897
G1 X111.698 Y175.241 E61.01155
G1 X111.071 Y175.044 E61.03341
G1 X110.473 Y174.772 E61.05526
G1 X109.912 Y174.43 E61.07711
G1 X109.397 Y174.022 E61.09896
G1 X108.935 Y173.555 E61.12081
G1 X108.534 Y173.035 E61.14265
G1 X108.198 Y172.471 E61.16449
G1 X107.934 Y171.869 E61.18635
G1 X107.744 Y171.24 E61.20821
G1 X107.633 Y170.593 E61.23004
G1 X107.6 Y170 E61.24979
G1 X107.6 Y130 E62.5802
G1 X107.64 Y129.344 E62.60206
G1 X107.759 Y128.698 E62.62391
G1 X107.956 Y128.071 E62.64577
G1 X108.228 Y127.473 E62.66762
G1 X108.57 Y126.912 E62.68947
G1 X108.978 Y126.397 E62.71132
G1 X109.445 Y125.935 E62.73317
M204 S5000
M205 X30 Y30
G0 F3600 X109.373 Y126.559
M204 S500
M205 X20 Y20
G1 F1800 X109.836 Y126.129 E62.75419
G1 X110.35 Y125.76 E62.77523
G1 X110.906 Y125.46 E62.79624
G1 X111.495 Y125.232 E62.81725
G1 X112.109 Y125.08 E62.83829
G1 X113 Y125 E62.86804
G1 X187 Y125 E65.32929
G1 X187.631 Y125.04 E65.35032
G1 X188.252 Y125.159 E65.37135
G1 X188.852 Y125.356 E65.39236
G1 X189.424 Y125.627 E65.41341
G1 X189.956 Y125.967 E65.43441
G1 X190.441 Y126.373 E65.45545
G1 X190.871 Y126.836 E65.47646
G1 X191.24 Y127.35 E65.49751
G1 X191.54 Y127.906 E65.51852
G1 X191.768 Y128.495 E65.53953
G1 X191.92 Y129.109 E65.56056
G1 X192 Y130 E65.59032
G1 X192 Y170 E66.92072
G1 X191.96 Y170.631 E66.94175
G1 X191.841 Y171.252 E66.96278
G1 X191.644 Y171.852 E66.98379
G1 X191.373 Y172.424 E67.00484
G1 X191.033 Y172.956 E67.02584
G1 X190.627 Y173.441 E67.04688
G1 X190.164 Y173.871 E67.06789
G1 X189.65 Y174.24 E67.08894
G1 X189.094 Y174.54 E67.10995
G1 X188.505 Y174.768 E67.13096
G1 X187.891 Y174.92 E67.152
G1 X187 Y175 E67.18175
G1 X113 Y175 E69.643
G1 X112.369 Y174.96 E69.66403
G1 X111.748 Y174.841 E69.68506
G1 X111.148 Y174.644 E69.70606
G1 X110.576 Y174.373 E69.72712
G1 X110.044 Y174.033 E69.74811
G1 X109.559 Y173.627 E69.76915
G1 X109.129 Y173.164 E69.79017
G1 X108.76 Y172.65 E69.81121
G1 X108.46 Y172.094 E69.83223
G1 X108.232 Y171.505 E69.85323
G1 X108.08 Y170.891 E69.87427
G1 X108 Y170 E69.90402
G1 X108 Y130 E71.23443
G1 X108.04 Y129.369 E71.25546
G1 X108.159 Y128.748 E71.27649
G1 X108.356 Y128.148 E71.29749
G1 X108.627 Y127.576 E71.31855
G1 X108.967 Y127.044 E71.33955
G1 X109.373 Y126.559 E71.36058
M204 S5000
M205 X30 Y30
G0 F3600 X109.767 Y126.728
M204 S500
M205 X20 Y20
G1 F1800 X110.225 Y126.331 E71.38074
G1 X110.732 Y125.998 E71.40092
G1 X111.278 Y125.734 E71.42109
G1 X111.854 Y125.545 E71.44125
G1 X112.45 Y125.433 E71.46142
G1 X113 Y125.4 E71.47975
G1 X187 Y125.4 E73.941
G1 X187.605 Y125.44 E73.96116
G1 X188.199 Y125.559 E73.98131
G1 X188.773 Y125.755 E74.00149
G1 X189.316 Y126.026 E74.02167
G1 X189.819 Y126.365 E74.04185
G1 X190.272 Y126.767 E74.06199
G1 X190.669 Y127.225 E74.08215
G1 X191.002 Y127.732 E74.10232
G1 X191.266 Y128.278 E74.1225
G1 X191.455 Y128.854 E74.14266
G1 X191.567 Y129.45 E74.16283
G1 X191.6 Y130 E74.18115
G1 X191.6 Y170 E75.51156
G1 X191.56 Y170.605 E75.53173
G1 X191.441 Y171.199 E75.55187
G1 X191.245 Y171.773 E75.57205
